X: 1
T: Strawberries and Raspberries
T: les Fraises et les Framboises
R: reel
S: Fiddle Hell Online 2021-04-15 Rodney Miller jam
Z: 2021 John Chambers <jc:trillian.mit.edu>
M: 2/4
L: 1/8
K: G
|:\
"G"BG GD | D3 B/B/ | BG FG | "D"A2 Dc |
"D"cA AF | F2 Dd | dc BA | "G"G2 Bd :|
|:\
"G"G>G GG  | G3 B | AG FG | "Am"A2 Ac |
"D"FF/F/ FF | F3 d | dc BA |1 "G"B2 Bd :|2 "G"G3 B |]
